X:76
T:Madame Vanoni
R:hornpipe
C:James Scott Skinner (1843-1927), Scotland
H:Originally in Bb and rather different
D:Brian Finnegan
Z:id:hn-hornpipe-76
M:C|
K:D
(3ABc|dAeA fAgA|aabc' d'dcB|AEBE cEdE|efge agec|
BGgB AFfA|GEeG FDdF|G2 (3BAG AecA|dfec d2:|
|:AG|FAdA FAdA|GBdB GBdB|^GBeB GBeB|Acec acec|
FAdA FAdA|GBdB GBdB|^GBe=g agec|dfec d2:|

